X: 28664
T: Musical Priest, The
R: reel
M: 4/4
K: Bminor
|:BA|"Bm"FB BA BABd|"A"cBAf ecBA|"Bm"FB BA BcdB|"A"cBAc "Bm"B2:|
|:Bc|"D"d2 dc dfed|"A"(3cBA eA fA eA|"Bm"dcBc "D"defb|"A"afec "Bm"B2:|
Bc|"Bm"dB (3BAB bafb|"A"afec ABce|"Bm"dB (3BAB bafb|"A"afec "Bm"B2 Bc|
"Bm"dB (3BAB bafb|"A"afec ABce|"Bm"dBBc defb|"A"afec "Bm"B4||

